misc-images/user.svg

<?xml version="1.0" encoding="UTF-8"?>
<!-- Generator: Adobe Illustrator 25.0.0, SVG Export Plug-In . SVG Version: 6.00 Build 0)  -->
<svg xmlns="http://www.w3.org/2000/svg" xmlns:xlink="http://www.w3.org/1999/xlink" version="1.1" id="Capa_1" x="0px" y="0px" viewBox="0 0 512 512" style="enable-background:new 0 0 512 512;" xml:space="preserve" width="512" height="512">
<g>
	<path d="M244.317,299.051c-90.917,8.218-160.183,85.041-158.976,176.32V480c0,17.673,14.327,32,32,32l0,0c17.673,0,32-14.327,32-32   v-5.909c-0.962-56.045,40.398-103.838,96-110.933c58.693-5.82,110.992,37.042,116.812,95.735c0.344,3.47,0.518,6.954,0.521,10.441   V480c0,17.673,14.327,32,32,32l0,0c17.673,0,32-14.327,32-32v-10.667c-0.104-94.363-76.685-170.774-171.047-170.67   C251.854,298.668,248.082,298.797,244.317,299.051z"/>
	<path d="M256.008,256c70.692,0,128-57.308,128-128S326.7,0,256.008,0s-128,57.308-128,128   C128.078,198.663,185.345,255.929,256.008,256z M256.008,64c35.346,0,64,28.654,64,64s-28.654,64-64,64s-64-28.654-64-64   S220.662,64,256.008,64z"/>
</g>















</svg>

<svg width="512" height="512" viewBox="0 0 512 512" fill="none" xmlns="http://www.w3.org/2000/svg">
<path d="M244.317 299.051C153.4 307.269 84.134 384.092 85.341 475.371V480C85.341 497.673 99.668 512 117.341 512C135.014 512 149.341 497.673 149.341 480V474.091C148.379 418.046 189.739 370.253 245.341 363.158C304.034 357.338 356.333 400.2 362.153 458.893C362.497 462.363 362.671 465.847 362.674 469.334V480C362.674 497.673 377.001 512 394.674 512C412.347 512 426.674 497.673 426.674 480V469.333C426.57 374.97 349.989 298.559 255.627 298.663C251.854 298.668 248.082 298.797 244.317 299.051Z" fill="black"/>
<path d="M256.008 256C326.7 256 384.008 198.692 384.008 128C384.008 57.308 326.7 0 256.008 0C185.316 0 128.008 57.308 128.008 128C128.078 198.663 185.345 255.929 256.008 256ZM256.008 64C291.354 64 320.008 92.654 320.008 128C320.008 163.346 291.354 192 256.008 192C220.662 192 192.008 163.346 192.008 128C192.008 92.654 220.662 64 256.008 64Z" fill="black"/>
</svg>
